!!!COM: Bach, Johann Sebastian
!!!OTL: Inventio No. 2
!! Two-part invention: Inventio 2; in c minor; BWV 772
!! Bach-Gesellschaft edition, pp.2-3
!! Performance duration: 1:57; performance tempo: 55.4 quarter-notes per minute.
!! (Andras Schiff, piano, "Two-Part Inventions BWV 772a-786; Three-part
!! Inventions BWV 787-801" Decca 411 974-2)
**kern	**kern
*clefF4	*clefG2
*k[b-e-a-]	*k[b-e-a-]
*c:	*c:
*M4/4	*M4/4
*MM55.4	*MM55.4
=1	=1
1r	8r
.	L16cc
.	16bn
.	J16cc
.	L16dd
.	16ee-
.	16g
.	J16a-
.	L16b-
.	16a-
.	16f
.	J16ff
.	L16ee-
.	16dd
.	J16cc
=2	=2
1r	L16bn
.	16aa-
.	16gg
.	J16ff
.	L16ee-
.	16dd
.	16cc
.	J16b
.	L16cc
.	16dd
.	16cc
.	J16dd
.	L8.ddO
.	32cc
.	J32dd
=3	=3
8r	L16ee-
.	16dd
L16c	16cc
J16Bn	J16dd
L16c	L16ee-
16d	16ff
16e-	J8gg
J16G	.
L16A-	L8ggM
16B-	.
16A-	J8ff
J16F	.
L16f	8r
16e-	.
16d	8ff
J16c	.
=4	=4
L16Bn	L8ffM
16a-	.
16g	J8ee-
J16f	.
L16e-	8r
16d	.
16c	8dd
J16B	.
L16c	L8ee-
16d	.
16c	J[8a-
J16d	.
L8.dO	L16a-]
.	16f
.	16b-
32c	J16f
J32d	.
=5	=5
L16e-	L8g
16d	.
16c	J[8ee-
J16d	.
L16e-	L16ee-]
16f	16dd
J8g	16ee-
.	J16b-
L8gM	L16cc
.	16ee-
J8f	16aa-
.	J16gg
8r	L16ff
.	16ee-
8f	16dd
.	J16cc
=6	=6
L8fM	L16b-
.	16dd
J8e-	16gg
.	J16ff
8r	L16ee-
.	16dd
8d	16cc
.	J16b-
L8e-	L16a-
.	16cc
J8A-	16ff
.	J16cc
L16A-	L8.ddM
16F	.
16B-	.
J16F	J16dd
=7	=7
L8G	L16ee-
.	16b-
J[8e-	16cc
.	J16b-
L16e-]	[4gg
16d	.
16e-	.
J16B-	.
L16c	L16gg]
16e-	16b-
16a-	16cc
J16g	J16b-
L16f	[4aa-
16e-	.
16d	.
J16c	.
=8	=8
L16B-	L16aa-]
16d	16b-
16g	16ee-
J16f	J16dd
L16e-	L{16gg
16d	16ff}
16c	16aa-
J16B-	J16gg
L16A-	L16ccc
16c	16bb-
16f	16aa-
J16c	J16gg
L8.dM	L16ff
.	16bb-
.	16aa-
J16d	J16bb-
=9	=9
L16e-	L16gg
16B-	16bb-
16c	16aa-
J16B-	J16bb-
[4g	L16ee-
.	16gg
.	16ff
.	J16gg
L16g]	L16cc
16B-	16dd
16c	16ee-
J16B-	J16ff
[4a-	L16dd
.	16ee-
.	16ff
.	J16gg
=10	=10
L16a-]	L16ee-
16B-	16ff
16e-	16gg
J16d	J16aa-
L16g	L16bb-
16f	16aa-
16a-	16ccc
J16g	J16bb-
L16cc	L16aa-
16b-	16gg
16a-	16ff
J16g	J16aa-
L16f	[4dd
16b-	.
16a-	.
J16b-	.
=11	=11
L8g	L16dd]
.	16dd
16E-	16gg
J16F	J16dd
L16G	L16ee-
16An	16cc
16B-	16dd
J16D	J16b-
L16E-	[4cc
16F	.
16E-	.
J16C	.
L16c	L16cc]
16B-	16gg
16A	16ff#
J16G	J16aan
=12	=12
L16F#	L16cc
16e-	16b-
16d	J[8cc
J16c	.
L16B-	L16cc]
16An	16ff#
16G	16een
J16F#	J16dd
L16G	L8.bb-
16A	.
16G	.
J16A	J16ee
L8.AO	L8.ff#
32G	J16gg
J32A	.
=13	=13
L16B-	L8gg
16An	.
16G	16g
J16A	J16f#
L16B-	L16g
16c	16an
J8d	16b-
.	J16d
L8dM	L16e-
.	16fn
J8c	16e-
.	J16c
8r	L16cc
.	16b-
8c	16a
.	J16g
=14	=14
L8cM	L16f#
.	16ee-
J8B-	16dd
.	J16cc
8r	L16b-
.	16an
8An	16g
.	J16f#
L8B-	L16g
.	16a
J[8E-	16g
.	J16a
L16E-]	L8.aO
16C	.
16Fn	.
J16C	32g
.	J32a
=15	=15
L8D	L16b-
.	16an
J[8B-	16g
.	J16a
L16B-]	L16b-
16An	16cc
16B-	J8dd
J16F	.
L16G	L8ddM
16B-	.
16e-	J8cc
J16d	.
L16c	8r
16B-	.
16A	8cc
J16G	.
=16	=16
L16F	L8ccM
16An	.
16d	J8b-
J16c	.
L16B-	8r
16A	.
16G	8an
J16F	.
L16E-	L8b-
16G	.
16c	J[8e-
J16G	.
L8.AM	L16e-]
.	16c
.	16f
J16A	J16c
=17	=17
L16B-	L8d
16F	.
16G	J[8b-
J16F	.
[4d	L16b-]
.	16an
.	16b-
.	J16f
L16d]	L16g
16F	16b-
16G	16ee-
J16F	J16dd
[4e-	L16cc
.	16b-
.	16a
.	J16g
=18	=18
L16e-]	L16f
16F	16an
16B-	16dd
J16An	J16cc
L16d	L16b-
16c	16a
16e-	16g
J16d	J16f
L16g	L16e-
16f	16g
16e-	16cc
J16d	J16g
L16c	L8.aM
16f	.
16e-	.
J16f	J16a
=19	=19
L16d	L16b-
16f	16f
16e-	16g
J16f	J16f
L16B-	[4dd
16d	.
16c	.
J16d	.
L16G	L16dd]
16An	16f
16B-	16g
J16c	J16f
L16A	[4ee-
16B-	.
16c	.
J16d	.
=20	=20
L16B-	L16ee-]
16c	16f
16d	16b-
J16e-	J16an
L16f	L16dd
16e-	16cc
16g	16ee-
J16f	J16dd
L16e-	L16gg
16d	16ff
16c	16ee-
J16e-	J16dd
[4An	L16cc
.	16ff
.	16ee-
.	J16ff
=21	=21
L16A]	L16dd
16D	16cc
16G	16b-
J16F#	J16an
L16B-	L16dd
16An	16cc
16c	16ee-
J16B-	J16dd
L16e-	L16cc
16d	16b-
16c	16a
J16B-	J16cc
L16A	[4ff
16d	.
16c	.
J16d	.
=22	=22
L16Bn	L16ff]
16f	16g
16e-	16cc
J16d	J16bn
L16c	L16ee-
16B-	16dd
16A-	16ff
J16G	J16ee-
L16F	L16aa-
16E-	16gg
16D	16ff
J16C	J16ee-
L8G	L16dd
.	16gg
J8GG	16ff
.	J16gg
=23	=23
L8.C	L16ee-
.	16dd
.	16cc
J16D	J16bn
L16E-	L16cc
16F	16dd
J8G	16ee-
.	J16g
L8GM	L16a-
.	16b-
J8F	16a-
.	J16f
8r	L16ff
.	16ee-
8F	16dd
.	J16cc
=24	=24
L8FM	L16bn
.	16aa-
J[8E-	16gg
.	J16ff
L16E-]	L16ee-
16F	16dd
16E-	16cc
J16D	J16b
L16C	L16cc
16BB-	16dd
16AA-	16cc
J16GG	J16dd
L16FF	L8.ddO
16EE-	.
16FF	.
J16GG	32cc
.	J32dd
=25	=25
L8CC	L16ee-
.	16dd
16C	16cc
J16BBn	J16dd
L16C	L16ee-
16D	16ff
16E-	J8gg
J16GG	.
L16AA-	L8ggM
16BB-	.
16AA-	J8ff
J16FF	.
L16F	8r
16E-	.
16D	8ff
J16C	.
=26	=26
L16BBn	L8ffM
16A-	.
16G	16ee-
J16F	J16dd
L16E-	L16gg
16D	16ff
16C	16aa-
J16BB	J16gg
L16C	L8.gg
16GG	.
16AA-	.
J16FF	J16aa-
L8GG	L8.ddM
J8GG	.
.	J16cc
=27	=27
1CC;	1cc;
==	==
*-	*-
!!!CDT: 1685/3//-1750/7/28
!!!OCY: Deutschland
